X: 1675
T: Lola Montez Polka
C:Albert Denning, tune published 1855
B: australian traditional tunes wiki
M:4/4
L:1/8
R: Polka
Q: 1/4=100
K:D
V:1 
|:"D".f.A .d.F|F/G/A/B/A2|"A7".c.E .G.C|C/D/E/F/E2|
"D".f.A .d.F|F/G/A/B/A2|"A7"b.e .gc|"D"dd dz:|
|:"D"f (3a/g/f/ ed|"A7"c (3c/d/c/B2|"D"fA "A7"gc|"D"ba az|
"D"f (3a/g/f/ ed|"A7"c (3c/d/c/B2|A/B/c/d/ e/f/g/c/|"D"dd dz:|
|:"D"Ad dc|"G"Bee2|"A7"Ae eg|"D"baa2|
Ad dc|"G"Bee2|"A7"A/B/c/d/ e/f/g/c/|"D"dd dz:|
% abcbook-tune_id 6342d53a4474d1d8d23a036d


% abcbook-boost 0
% abcbook-tablature 
% abcbook-transpose 
% abcbook-lastupdated 1665324377428
% abcbook-soundfonts 
% abcbook-repeats 1
% NFF Book 2014

